Setup/v9/Assets/Themes/Kobe - Light/ViewFirstImage.svg

<svg width="20" height="20" viewBox="0 0 20 20" fill="none" xmlns="http://www.w3.org/2000/svg">
<path fill-rule="evenodd" clip-rule="evenodd" d="M3.99996 1.5C3.99996 1.22386 4.22382 1 4.49996 1C4.7761 1 4.99996 1.22386 4.99996 1.5L4.99996 18.6983C4.99996 18.9745 4.77611 19.1983 4.49996 19.1983C4.22382 19.1983 3.99996 18.9745 3.99996 18.6983L3.99996 1.5ZM15.8535 1.94645C15.6583 1.75119 15.3417 1.75119 15.1464 1.94645L7.46244 9.63042C7.38689 9.70596 7.34058 9.79967 7.32349 9.89748C7.29631 10.0526 7.34261 10.218 7.46239 10.3378L15.1589 18.0343C15.3542 18.2295 15.6707 18.2295 15.866 18.0343C16.0613 17.839 16.0613 17.5224 15.866 17.3272L9.93716 11.3983C9.15612 10.6173 9.15612 9.35096 9.93716 8.56991L15.8535 2.65356C16.0488 2.45829 16.0488 2.14171 15.8535 1.94645Z" fill="black"/>
</svg>

<svg xmlns="http://www.w3.org/2000/svg" width="20" height="20" fill="none"><path fill="#000" fill-rule="evenodd" d="M4 1.5a.5.5 0 0 1 1 0v17.198a.5.5 0 1 1-1 0V1.5Zm11.854.446a.5.5 0 0 0-.708 0L7.462 9.63a.498.498 0 0 0 0 .708l7.697 7.696a.5.5 0 0 0 .707-.707l-5.929-5.929a2 2 0 0 1 0-2.828l5.917-5.916a.5.5 0 0 0 0-.708Z" clip-rule="evenodd"/></svg>
